Icons/arch.svg

<svg width="256" height="256" viewBox="0 0 256 256" fill="none" xmlns="http://www.w3.org/2000/svg">
<g clip-path="url(#clip0_33_628)">
<path d="M196 0H60C26.8629 0 0 26.8629 0 60V196C0 229.137 26.8629 256 60 256H196C229.137 256 256 229.137 256 196V60C256 26.8629 229.137 0 196 0Z" fill="#242938"/>
<g clip-path="url(#clip1_33_628)">
<path d="M127.5 41C119.711 60.0976 114.981 72.6074 106.309 91.1373C111.626 96.7737 118.161 103.313 128.76 110.727C117.365 106.037 109.597 101.342 103.788 96.4565C92.6887 119.617 75.2882 152.594 40 216C67.7284 199.992 89.2239 190.118 109.257 186.349C108.4 182.655 107.942 178.64 107.975 174.472L107.996 173.596C108.436 155.826 117.682 142.163 128.632 143.09C139.582 144.018 148.106 159.18 147.666 176.95C147.583 180.297 147.194 183.513 146.534 186.499C166.351 190.377 187.644 200.207 215 216C209.605 206.068 204.773 197.119 200.175 188.592C192.931 182.978 185.38 175.674 169.968 167.764C180.561 170.516 188.153 173.699 194.065 177.249C147.31 90.2001 143.533 78.6253 127.5 41Z" fill="#1793D1"/>
<path d="M176.755 145.015C138.825 93.5323 130.033 52.0391 127.806 42.1328C148.039 88.8013 147.901 89.3736 176.755 145.015Z" fill="white" fill-opacity="0.16568"/>
<path d="M127.821 41.7482C126.848 44.1402 125.9 46.4614 125.002 48.6696C124.006 51.1157 123.059 53.451 122.118 55.7405C121.177 58.03 120.244 60.2643 119.319 62.4696C118.394 64.6751 117.467 66.8554 116.521 69.0492C115.574 71.243 114.622 73.4596 113.615 75.7143C112.609 77.969 111.558 80.2689 110.454 82.657C109.349 85.0452 108.191 87.5185 106.95 90.1125C106.778 90.4718 106.57 90.8807 106.395 91.2447C111.696 96.8591 118.222 103.356 128.761 110.727C117.395 106.05 109.635 101.372 103.831 96.4998C103.53 97.115 103.266 97.6643 102.956 98.2943C102.547 99.1234 102.056 100.066 101.631 100.922C100.885 102.451 100.106 104.022 99.3027 105.643C98.9939 106.257 98.7229 106.788 98.4054 107.416C93.3329 117.596 87.04 129.782 78.9443 144.928C101.138 132.424 125.076 114.384 168.559 129.911C166.379 125.781 164.375 121.909 162.492 118.268C160.61 114.627 158.861 111.217 157.237 107.993C155.614 104.769 154.113 101.729 152.708 98.8497C151.304 95.9705 150.002 93.2529 148.778 90.6465C147.553 88.0402 146.4 85.5323 145.317 83.127C144.234 80.7218 143.201 78.4175 142.22 76.1415C141.238 73.8654 140.298 71.631 139.378 69.4124C138.459 67.1938 137.561 64.9805 136.665 62.7473C136.345 61.9494 136.025 61.1181 135.704 60.312C133.251 54.553 130.732 48.5855 127.821 41.7482Z" fill="url(#paint0_linear_33_628)"/>
</g>
</g>
<defs>
<linearGradient id="paint0_linear_33_628" x1="127.904" y1="61.7314" x2="104.123" y2="133.77" gradientUnits="userSpaceOnUse">
<stop stop-color="white" stop-opacity="0"/>
<stop offset="1" stop-color="white" stop-opacity="0.27451"/>
</linearGradient>
<clipPath id="clip0_33_628">
<rect width="256" height="256" fill="white"/>
</clipPath>
<clipPath id="clip1_33_628">
<rect width="175" height="175" fill="white" transform="translate(40 41)"/>
</clipPath>
</defs>
</svg>

<svg width="256" height="256" viewBox="0 0 256 256" fill="none" xmlns="http://www.w3.org/2000/svg"><g clip-path="url(#a)"><g clip-path="url(#b)"><path d="M127.5 41c-7.789 19.098-12.519 31.607-21.191 50.137 5.317 5.637 11.852 12.176 22.451 19.59-11.395-4.69-19.163-9.385-24.972-14.27C92.688 119.617 75.288 152.594 40 216c27.728-16.008 49.224-25.882 69.257-29.651-.857-3.694-1.315-7.709-1.282-11.877l.021-.876c.44-17.77 9.686-31.433 20.636-30.506 10.95.928 19.474 16.09 19.034 33.86-.083 3.347-.472 6.563-1.132 9.549 19.817 3.878 41.11 13.708 68.466 29.501a9921 9921 0 0 1-14.825-27.408c-7.244-5.614-14.795-12.918-30.207-20.828 10.593 2.752 18.185 5.935 24.097 9.485C147.31 90.2 143.533 78.625 127.5 41" fill="#1793d1"/><path d="M176.755 145.015c-37.93-51.483-46.722-92.976-48.949-102.882 20.233 46.668 20.095 47.24 48.949 102.882" fill="#fff" fill-opacity=".166"/><path d="M127.821 41.748c-.973 2.392-1.921 4.713-2.819 6.922-.996 2.446-1.943 4.781-2.884 7.07s-1.874 4.524-2.799 6.73a713 713 0 0 1-2.798 6.58c-.947 2.193-1.899 4.41-2.906 6.664a572 572 0 0 1-3.161 6.943 636 636 0 0 1-3.504 7.456c-.172.359-.38.768-.555 1.132 5.301 5.614 11.827 12.111 22.366 19.482-11.366-4.677-19.126-9.355-24.93-14.227-.301.615-.565 1.164-.875 1.794-.409.83-.9 1.772-1.325 2.628-.746 1.529-1.525 3.1-2.328 4.721l-.898 1.773c-5.072 10.18-11.365 22.366-19.46 37.512 22.193-12.504 46.131-30.544 89.614-15.017-2.18-4.13-4.184-8.002-6.067-11.643a1114 1114 0 0 1-5.255-10.275 819 819 0 0 1-4.529-9.143 620 620 0 0 1-3.93-8.203 508 508 0 0 1-3.461-7.52 476 476 0 0 1-3.097-6.986 512 512 0 0 1-2.842-6.729 644 644 0 0 1-2.713-6.665c-.32-.798-.64-1.629-.961-2.435-2.453-5.759-4.972-11.726-7.883-18.564" fill="url(#c)"/></g></g><defs><clipPath id="a"><path fill="#fff" d="M0 0h256v256H0z"/></clipPath><clipPath id="b"><path fill="#fff" d="M40 41h175v175H40z"/></clipPath><linearGradient id="c" x1="127.904" y1="61.731" x2="104.123" y2="133.77" gradientUnits="userSpaceOnUse"><stop stop-color="#fff" stop-opacity="0"/><stop offset="1" stop-color="#fff" stop-opacity=".275"/></linearGradient></defs></svg>
